local/share/icons/dracula-icons-main/22/devices/computer-laptop.svg

<?xml version="1.0" encoding="UTF-8"?>
<svg xmlns="http://www.w3.org/2000/svg" xmlns:xlink="http://www.w3.org/1999/xlink" width="22" height="22" viewBox="0 0 22 22">
<path fill-rule="nonzero" fill="rgb(44.705882%, 44.705882%, 44.705882%)" fill-opacity="1" d="M 5 4 C 4 4 4 5 4 5 L 4 15.003906 C 4 15 5 16.003906 5 16.003906 L 4 16.003906 C 4 16.003906 3 16.003906 3 17.003906 L 3 18 L 19 18 L 19 17.003906 C 19 16.003906 18.019531 16.003906 18.019531 16.003906 L 17 16.003906 L 18 15 L 18 5 C 18 5 18 4 17 4 Z M 6 6 L 16 6 L 16 13.976562 L 6 14.003906 Z M 6 6 "/>
</svg>

<svg width="22" height="22" version="1.1" viewBox="0 0 22 22" xmlns="http://www.w3.org/2000/svg">
 <defs>
  <style id="current-color-scheme" type="text/css">.ColorScheme-Text { color:#727272; } .ColorScheme-Highlight { color:#5294e2; }</style>
 </defs>
 <path class="ColorScheme-Text" d="m4.9999 4c-1 0-1 1.0003-1 1.0003v10.003c0-0.0039 1 1.0003 1 1.0003h-1s-1 0-1 1.0003v0.99637h16v-0.99637c0-1.0003-0.97852-1.0003-0.97852-1.0003h-1.0217l1-1.0042v-9.9989s0-1.0003-1-1.0003zm1 2.0006h10v7.9768l-10 0.0254z" fill="currentColor" stroke-width="1.0001"/>
</svg>
